img/socmed/yt.svg

<?xml version="1.0" encoding="UTF-8" standalone="no"?>
<svg
   xmlns:dc="http://purl.org/dc/elements/1.1/"
   xmlns:cc="http://creativecommons.org/ns#"
   xmlns:rdf="http://www.w3.org/1999/02/22-rdf-syntax-ns#"
   xmlns:svg="http://www.w3.org/2000/svg"
   xmlns="http://www.w3.org/2000/svg"
   xmlns:sodipodi="http://sodipodi.sourceforge.net/DTD/sodipodi-0.dtd"
   xmlns:inkscape="http://www.inkscape.org/namespaces/inkscape"
   height="50px"
   version="1.1"
   viewBox="0 0 50 50"
   width="50px"
   id="svg2"
   inkscape:version="0.91 r13725"
   sodipodi:docname="yt.svg">
  <metadata
     id="metadata13">
    <rdf:RDF>
      <cc:Work
         rdf:about="">
        <dc:format>image/svg+xml</dc:format>
        <dc:type
           rdf:resource="http://purl.org/dc/dcmitype/StillImage" />
      </cc:Work>
    </rdf:RDF>
  </metadata>
  <sodipodi:namedview
     pagecolor="#ffffff"
     bordercolor="#666666"
     borderopacity="1"
     objecttolerance="10"
     gridtolerance="10"
     guidetolerance="10"
     inkscape:pageopacity="0"
     inkscape:pageshadow="2"
     inkscape:window-width="658"
     inkscape:window-height="480"
     id="namedview11"
     showgrid="false"
     inkscape:zoom="4.830625"
     inkscape:cx="-6.2588951"
     inkscape:cy="25"
     inkscape:window-x="0"
     inkscape:window-y="0"
     inkscape:window-maximized="0"
     inkscape:current-layer="svg2" />
  <title
     id="title4" />
  <defs
     id="defs6" />
  <g
     fill="none"
     fill-rule="evenodd"
     id="Page-1"
     stroke="none"
     stroke-width="1"
     style="fill:#f2f2f2">
    <g
       fill="#000000"
       id="YouTube"
       style="fill:#f2f2f2">
      <path
         d="M50,25 C50,11.1928806 38.8071194,0 25,0 C11.1928806,0 0,11.1928806 0,25 C0,38.8071194 11.1928806,50 25,50 C38.8071194,50 50,38.8071194 50,25 Z M47,25 C47,12.8497349 37.1502651,3 25,3 C12.8497349,3 3,12.8497349 3,25 C3,37.1502651 12.8497349,47 25,47 C37.1502651,47 47,37.1502651 47,25 Z M36.768327,30.7654774 C36.4698281,32.0627028 35.4087162,33.0191862 34.1319129,33.1618614 C31.1074781,33.4998058 28.0463955,33.5014844 24.9984613,33.4998058 C21.9508068,33.5014844 18.8894444,33.4998058 15.8652894,33.1618614 C14.5882064,33.0191862 13.5276539,32.0627028 13.2294348,30.7654774 C12.8047662,28.9179732 12.8047662,26.9020564 12.8047662,25.0002798 C12.8047662,23.0982233 12.8098018,21.0820268 13.2341906,19.2345226 C13.5326895,17.9372972 14.5932419,16.980534 15.8700452,16.8381386 C18.89448,16.5001942 21.9555627,16.4985156 25.0034969,16.5001942 C28.0511513,16.4985156 31.1125137,16.5001942 34.1366687,16.8381386 C35.4137518,16.980534 36.4748637,17.9372972 36.7730829,19.2345226 C37.1977514,21.0820268 37.1952336,23.0982233 37.1952336,25.0002798 C37.1952336,26.9020564 37.1927158,28.9179732 36.768327,30.7654774 Z M22.8047662,20.5 L29.5547662,24.3971143 L22.8047662,28.2942286 L22.8047662,20.5 Z M22.8047662,20.5"
         id="Oval-1"
         style="fill:#f2f2f2" />
    </g>
  </g>
</svg>

<?xml version="1.0" encoding="UTF-8" standalone="no"?>
<svg
   xmlns:dc="http://purl.org/dc/elements/1.1/"
   xmlns:cc="http://creativecommons.org/ns#"
   xmlns:rdf="http://www.w3.org/1999/02/22-rdf-syntax-ns#"
   xmlns:svg="http://www.w3.org/2000/svg"
   xmlns="http://www.w3.org/2000/svg"
   xmlns:sodipodi="http://sodipodi.sourceforge.net/DTD/sodipodi-0.dtd"
   xmlns:inkscape="http://www.inkscape.org/namespaces/inkscape"
   height="50px"
   version="1.1"
   viewBox="0 0 50 50"
   width="50px"
   id="svg2"
   inkscape:version="0.91 r13725"
   sodipodi:docname="yt.svg">
  <metadata
     id="metadata13">
    <rdf:RDF>
      <cc:Work
         rdf:about="">
        <dc:format>image/svg+xml</dc:format>
        <dc:type
           rdf:resource="http://purl.org/dc/dcmitype/StillImage" />
      </cc:Work>
    </rdf:RDF>
  </metadata>
  <sodipodi:namedview
     pagecolor="#ffffff"
     bordercolor="#666666"
     borderopacity="1"
     objecttolerance="10"
     gridtolerance="10"
     guidetolerance="10"
     inkscape:pageopacity="0"
     inkscape:pageshadow="2"
     inkscape:window-width="1075"
     inkscape:window-height="656"
     id="namedview11"
     showgrid="false"
     inkscape:zoom="8.36"
     inkscape:cx="20.215311"
     inkscape:cy="20.215311"
     inkscape:window-x="0"
     inkscape:window-y="0"
     inkscape:window-maximized="0"
     inkscape:current-layer="YouTube" />
  <title
     id="title4" />
  <defs
     id="defs6" />
  <g
     fill="none"
     fill-rule="evenodd"
     id="Page-1"
     stroke="none"
     stroke-width="1"
     style="fill:#f2f2f2">
    <g
       fill="#000000"
       id="YouTube"
       style="fill:#f2f2f2">
      <path
         d="m 36.768327,30.765477 c -0.298499,1.297226 -1.359611,2.253709 -2.636414,2.396384 -3.024435,0.337945 -6.085518,0.339623 -9.133452,0.337945 -3.047654,0.0017 -6.109017,0 -9.133172,-0.337945 -1.277083,-0.142675 -2.337635,-1.099158 -2.635854,-2.396384 -0.424669,-1.847504 -0.424669,-3.863421 -0.424669,-5.765197 0,-1.902057 0.005,-3.918253 0.429425,-5.765757 0.298499,-1.297226 1.359051,-2.253989 2.635854,-2.396384 3.024435,-0.337945 6.085518,-0.339623 9.133452,-0.337945 3.047654,-0.0017 6.109017,0 9.133172,0.337945 1.277083,0.142395 2.338195,1.099158 2.636414,2.396384 0.424668,1.847504 0.422151,3.8637 0.422151,5.765757 0,1.901776 -0.0025,3.917693 -0.426907,5.765197 z M 22.804766,20.5 l 6.75,3.897114 -6.75,3.897115 z"
         id="Oval-1"
         style="fill:#f2f2f2"
         inkscape:connector-curvature="0"
         sodipodi:nodetypes="cscccscccccsccccc" />
    </g>
  </g>
</svg>
